X:1
T:Planxty Plunket
T:Planxty Plunket
T:Carolan
C:Carolan
L:1/8
M:6/8
K:G
V:1 treble 
V:1
"^Allegretto" e | c z B/A/ GED | EGG B>cd | dBA aga | geg ece | d2 d d/c/d/e/d | %6
 e/d/e/f/g g>ag/d/ | eaa a>ba | gee e2 a | gee dBBeAA GEE | A/B/cA B/c/dB |1 c/d/eE A2 :|2 %12
 c/d/eE A3 |: EGG G/F/G/A/G | EAA A/G/A/B/A | GBB GBB | cee e2 g/a/ | bg/a/b af/g/a | %18
 ge/f/g fd/e/f | ge/f/g af/g/a | gBB B2 g | dBG dBG | ecA ecA | A/B/cA GEC | EAA A3 :| %25

